src/lib/packages/icons/src/assets/filled/angle-left-circle.svg

<svg width="24" height="24" viewBox="0 0 24 24" fill="none" xmlns="http://www.w3.org/2000/svg">
<path d="M12 2C6.477 2 2 6.477 2 12C2 17.523 6.477 22 12 22C17.523 22 22 17.523 22 12C22 6.477 17.523 2 12 2ZM13.53 14.47C13.823 14.763 13.823 15.238 13.53 15.531C13.384 15.677 13.192 15.751 13 15.751C12.808 15.751 12.616 15.678 12.47 15.531L9.46997 12.531C9.17697 12.238 9.17697 11.763 9.46997 11.47L12.47 8.46997C12.763 8.17697 13.238 8.17697 13.531 8.46997C13.824 8.76297 13.824 9.23801 13.531 9.53101L11.061 12.001L13.53 14.47Z" fill="currentColor"/>
</svg>

<svg xmlns="http://www.w3.org/2000/svg" width="24" height="24" fill="none"><path fill="currentColor" d="M12 2C6.477 2 2 6.477 2 12s4.477 10 10 10 10-4.477 10-10S17.523 2 12 2Zm1.53 12.47a.75.75 0 0 1-1.06 1.061l-3-3a.75.75 0 0 1 0-1.061l3-3a.75.75 0 1 1 1.061 1.061l-2.47 2.47 2.469 2.469Z"/></svg>
